X: 069
M: C|
L: 1/8
K: G
c |\
|: g |\
e/e/e dB dGGB | A/A/A BG AEEA |
e/e/e gd ecgB | A/A/A BG AEEA |\

